X:1
T:Par ton depart
T:Par ton depart
T:Jean Courtois
T:Source : Ve Livre de Chansons nouvelles à 4 parties---Paris---P.Attaignant---1540. Editor : André Vierendeels (10/01/15).
C:Jean Courtois
%%score [ 1 [ 2 3 ] 4 ]
L:1/8
Q:1/4=95
M:2/2
K:F
V:1 treble nm="Superius" snm="S"
V:2 treble-8 nm="Tenor 1" snm="T 1"
V:3 treble-8 nm="Tenor 2" snm="T 2"
V:4 bass nm="Bassus" snm="B"
V:1
 A8 | F4 G4 | A4 z2 A2 | A2 A2 B4 | G2 c3 B AG | F2 G4 F2- | F2 E2 F2 A2 | A2 A2 B4 | A8 | %9
w: Par|ton de-|part re-|gret me vient|sai- * * * *||* * sir, de|tel- le sor-|te|
 z2 A2 B2 c2 | FG AB c2 B2- | B2 A4 G2 | A8 | z2 A2 A2 A2 | c4 G4 | z2 c2 c2 B2 | A2 G2 F3 G | %17
w: que nay nul-|le _ _ _ _ puis-|* san- *|ce|de po- voyr|fai- re|con- tre luy|re- si- sten- *|
 A2 G4 F2- | F2 E2 F4 | z4 A4- | A4 F4 | G4 A4 | z2 A2 A2 A2 | B4 G2 c2- | cB AG F2 G2- | %25
w: |* * ce,|car|_ par|luy suys|ba- ny de|tout, de tout|_ _ _ _ _ _|
 G2 F4 E2 | F4 z4 | A8 | F4 G4 | A4 z2 A2 | A2 A2 B4 | G2 c3 B AG | F2 G3 F F2- | F2 E2 F4- | F8 |] %35
w: * * plai-|sir,|car|par luy|suys ba-|ny de tout,-|de tout _ _ _|_ _ _ _|* plai- sir.|_|
V:2
 c8 | d4 d4 | f8 | z2 d2 d2 d2 | gf ed c4- | c2 c2 d2 B2 | c4 c2 f2 | f2 f2 f4 | f2 c2 f3 e | %9
w: Par|ton de-|part|re- gret me|vient _ _ _ _|_ sai- * *|* sir, de|tel- le sor-|* te que _|
 d2 c2 d2 e2 | f2 F4 Bc | de f2 d2 z d | d2 d2 f4 | f2 F2 A2 A2 | G2 A2 B2 G2 | c4 g2 fe | %16
w: _ nay nul- *|le puis- san- *|* * * ce de|po- voyr fai-|re con- tre luy|re- si- sten- *||
 ed e2 c4 | z2 c2 d4 | c4 c4 | z4 c4- | c4 d4 | d4 f4- | f4 z2 d2 | d2 d2 gf ed | c6 c2 | %25
w: * * * ce,|re- si-|sten- ce,|car|_ par|luy suys|_ ba-|ny de tout, _ _ _|_ de|
 d2 B2 c4 | A4 z4 | c8 | d4 d4 | f8 | z2 d2 d2 d2 | gf ed c4- | c2 c2 d2 B2 | c4 A4- | A8 |] %35
w: tout _ plai-|sir,|car|par luy|suys|ba- ny de|tout, _ _ _ _|_ de tout _|plai- sir.|_|
V:3
 A8 | A4 B4 | c2 A2 A2 A2 | d4 B4 | c3 B/A/ G2 A2- | A2 G2 BA GF | G4 F2 c2 | c2 c2 d4 | c4 F4 | %9
w: Par|ton de-|part re- gret me|vient sai-|||* sir, de|tel- le sor-|* te|
 z2 c2 f2 e2 | d2 d2 c2 d2- | dc BA B4 | A2 z A A2 A2 | d4 c2 f2 | f2 e2 d4 | e2 f2 d4 | %16
w: que nay nul-|le puis- san- *||ce de po- voyr|fai- re con-|tre luy re-|si- sten- *|
 c3 B AG A2- | AB cA BA AG/F/ | G4 F4 | z4 A4- | A4 A4 | B4 c2 A2 | A2 A2 d4 | B4 c3 B/A/ | %24
w: ||* ce,|car|_ par|luy suys ba-|ny de tout|plai- * * *|
 G2 A4 G2 | BA GF G4 | F4 z4 | A8 | A4 B4 | c2 A2 A2 A2 | d4 B4 | c3 B/A/ G2 A2- | A2 G2 BA GF | %33
w: ||sir,|car|par luy|suys ba- ny de|tout plai-|||
 G4 F4- | F8 |] %35
w: * sir.|_|
V:4
 F,8 | D,4 G,4 | F,4 z2 D,2 | D,2 D,2 G,4 | C,3 D, E,C, F,2- | F,2 E,2 D,4 | C,4 z2 F,2 | %7
w: Par|ton de-|part re-|gret me vient|sai- * * * *||sir, de|
 F,2 F,2 B,4 | F,4 z2 D,2 | F,3 E, D,2 C,2 | D,E, F,G, A,2 G,2- | G,2 F,2 G,4 | D,4 z2 D,2 | %13
w: tel- le sor-|te que|nay nul- le puis-|san- * * * * *||ce de|
 D,2 D,2 F,4 | C,2 C2 C2 B,2 | A,2 F,2 G,4 | C,4 z2 F,2 | F,2 E,2 D,2 F,2 | C,4 F,4 | z4 F,4- | %20
w: po- voyr fai-|re con- tre luy|re- si- sten-|ce, con-|tre luy re- si-|sten- ce,|car|
 F,4 D,4 | G,4 F,4 | z2 D,2 D,2 D,2 | G,4 C,3 D, | E,C, F,4 E,2 | D,4 C,4 | F,4 z4 | F,8 | %28
w: _ par|luy suys|ba- ny de|tout plai- *|||sir,|car|
 D,4 G,4 | F,4 z2 D,2 | D,2 D,2 G,4 | C,3 D, E,C, F,2- | F,2 E,2 D,4 | C,4 F,4- | F,8 |] %35
w: par luy|suys ba-|ny de tout|plai- * * * *||* sir.|_|

